symbols/web/backup/materialsymbolsrounded/backup_20px.svg

<svg xmlns="http://www.w3.org/2000/svg" height="20" width="20"><path d="M5.438 16.667q-1.917 0-3.261-1.344T.833 12.062q0-1.624.969-2.864.969-1.24 2.552-1.615.542-1.895 2.104-3.073Q8.021 3.333 10 3.333q2.438 0 4.156 1.677 1.719 1.678 1.719 4.073 1.417.167 2.354 1.261.938 1.094.938 2.531 0 1.563-1.125 2.677-1.125 1.115-2.688 1.115h-4.479q-.729 0-1.24-.511-.51-.51-.51-1.239V10.75l-.687.688q-.25.25-.605.25-.354 0-.604-.25t-.25-.605q0-.354.25-.604l2.146-2.146q.125-.125.292-.198.166-.073.333-.073t.333.073q.167.073.292.198l2.146 2.146q.25.25.25.604 0 .355-.25.605t-.604.25q-.355 0-.605-.25l-.687-.688v4.167h4.5q.854 0 1.448-.594t.594-1.448q0-.854-.594-1.448t-1.448-.594h-1.25V9.188q0-1.709-1.208-2.907Q11.708 5.083 10 5.083q-1.708 0-2.917 1.198-1.208 1.198-1.208 2.907h-.417q-1.187 0-2.031.843-.844.844-.844 2.031 0 1.188.834 2.021.833.834 2.021.834H6.5q.354 0 .615.26.26.261.26.615t-.26.614q-.261.261-.615.261ZM10 10.875Z"/></svg>

<svg xmlns="http://www.w3.org/2000/svg" height="20" width="20"><path d="M5.438 16.667Q3.521 16.667 2.177 15.323Q0.833 13.979 0.833 12.062Q0.833 10.438 1.802 9.198Q2.771 7.958 4.354 7.583Q4.896 5.688 6.458 4.51Q8.021 3.333 10 3.333Q12.438 3.333 14.156 5.01Q15.875 6.688 15.875 9.083Q17.292 9.25 18.229 10.344Q19.167 11.438 19.167 12.875Q19.167 14.438 18.042 15.552Q16.917 16.667 15.354 16.667H10.875Q10.146 16.667 9.635 16.156Q9.125 15.646 9.125 14.917V10.75L8.438 11.438Q8.188 11.688 7.833 11.688Q7.479 11.688 7.229 11.438Q6.979 11.188 6.979 10.833Q6.979 10.479 7.229 10.229L9.375 8.083Q9.5 7.958 9.667 7.885Q9.833 7.812 10 7.812Q10.167 7.812 10.333 7.885Q10.5 7.958 10.625 8.083L12.771 10.229Q13.021 10.479 13.021 10.833Q13.021 11.188 12.771 11.438Q12.521 11.688 12.167 11.688Q11.812 11.688 11.562 11.438L10.875 10.75V14.917Q10.875 14.917 10.875 14.917Q10.875 14.917 10.875 14.917H15.375Q16.229 14.917 16.823 14.323Q17.417 13.729 17.417 12.875Q17.417 12.021 16.823 11.427Q16.229 10.833 15.375 10.833H14.125V9.188Q14.125 7.479 12.917 6.281Q11.708 5.083 10 5.083Q8.292 5.083 7.083 6.281Q5.875 7.479 5.875 9.188H5.458Q4.271 9.188 3.427 10.031Q2.583 10.875 2.583 12.062Q2.583 13.25 3.417 14.083Q4.25 14.917 5.438 14.917H6.5Q6.854 14.917 7.115 15.177Q7.375 15.438 7.375 15.792Q7.375 16.146 7.115 16.406Q6.854 16.667 6.5 16.667ZM10 10.875Q10 10.875 10 10.875Q10 10.875 10 10.875Q10 10.875 10 10.875Q10 10.875 10 10.875Q10 10.875 10 10.875Q10 10.875 10 10.875Q10 10.875 10 10.875Q10 10.875 10 10.875Q10 10.875 10 10.875Q10 10.875 10 10.875Q10 10.875 10 10.875Q10 10.875 10 10.875Q10 10.875 10 10.875Q10 10.875 10 10.875Q10 10.875 10 10.875Q10 10.875 10 10.875Q10 10.875 10 10.875Q10 10.875 10 10.875Q10 10.875 10 10.875Q10 10.875 10 10.875Q10 10.875 10 10.875Q10 10.875 10 10.875Z"/></svg>
